storage/app/icons/phosphoricons/duotone/city-duotone.svg

<svg xmlns="http://www.w3.org/2000/svg" fill="currentColor" viewBox="0 0 256 256"><path d="M32 40h64v176H32Zm128 48v128h64V88Z" opacity=".2"/><path d="M240 208h-8V88a8 8 0 0 0-8-8h-64a8 8 0 0 0-8 8v40h-48V40a8 8 0 0 0-8-8H32a8 8 0 0 0-8 8v168h-8a8 8 0 0 0 0 16h224a8 8 0 0 0 0-16M168 96h48v112h-48Zm-16 48v64h-48v-64ZM40 48h48v160H40Zm32 24v16a8 8 0 0 1-16 0V72a8 8 0 0 1 16 0m0 48v16a8 8 0 0 1-16 0v-16a8 8 0 0 1 16 0m0 48v16a8 8 0 0 1-16 0v-16a8 8 0 0 1 16 0m48 16v-16a8 8 0 0 1 16 0v16a8 8 0 0 1-16 0m64 0v-16a8 8 0 0 1 16 0v16a8 8 0 0 1-16 0m0-48v-16a8 8 0 0 1 16 0v16a8 8 0 0 1-16 0"/></svg>

<svg xmlns="http://www.w3.org/2000/svg" viewBox="0 0 256 256" fill="currentColor"><path d="M32,40H96V216H32ZM160,88V216h64V88Z" opacity="0.2"/><path d="M240,208h-8V88a8,8,0,0,0-8-8H160a8,8,0,0,0-8,8v40H104V40a8,8,0,0,0-8-8H32a8,8,0,0,0-8,8V208H16a8,8,0,0,0,0,16H240a8,8,0,0,0,0-16ZM168,96h48V208H168Zm-16,48v64H104V144ZM40,48H88V208H40ZM72,72V88a8,8,0,0,1-16,0V72a8,8,0,0,1,16,0Zm0,48v16a8,8,0,0,1-16,0V120a8,8,0,0,1,16,0Zm0,48v16a8,8,0,0,1-16,0V168a8,8,0,0,1,16,0Zm48,16V168a8,8,0,0,1,16,0v16a8,8,0,0,1-16,0Zm64,0V168a8,8,0,0,1,16,0v16a8,8,0,0,1-16,0Zm0-48V120a8,8,0,0,1,16,0v16a8,8,0,0,1-16,0Z"/></svg>
